X:1
T:Mr. John Trotter of Castelaw's Hornpipe
T:Mr. John Trotter of Castelaw's Hornpipe
T:Robert Mackintosh
C:Robert Mackintosh
L:1/8
M:4/4
K:F
V:1 treble 
V:1
"C7" FG |"F" AfcA"C7" BGcB |"F" A2 F4 GA |"Gm" Bcdc"^Bb/Gm" BAGF |"C" E2 C4 F_E | %5
"Bb" DFBd"C7" =EGc=e |"Dm" FAdf"G7" =Bagf |"Dm7" fedc"G7" edc=B |"C" c2 c2 c2 :: cB | %10
"F" ABcB"^A/F7" AGF_E |"Bb" D2 D2-"^A/D2" D2 C2 |"Gm" B,2 dc"^Bb/Gm" BAGF | %13
"C" E2 C2-"^E/C7" C2 [B,C]2 |"F" A,F"Gm"B,F"A" CF"Bb"DF |"C" Ec"Dm7"Fc"E" Gc"F"Ac | %16
"Gm7" dBbg"C7" afge |"F" f2"Bb" f2"F" f2 :| %18

